packages/components/bolt-icons/src/svgs/utility/eye-off.svg

<?xml version="1.0" encoding="UTF-8" standalone="no"?>
<svg viewBox="0 0 24 24" version="1.1" xmlns="http://www.w3.org/2000/svg" xmlns:xlink="http://www.w3.org/1999/xlink">
    <!-- Generator: Sketch 46.2 (44496) - http://www.bohemiancoding.com/sketch -->
    <title>Icon/utility/Indigo/24px/Eye-off</title>
    <desc>Created with Sketch.</desc>
    <defs></defs>
    <g id="Symbols" stroke="none" stroke-width="1" fill="none" fill-rule="evenodd">
        <g id="Icon/utility/Indigo/24px/Eye-off">
            <rect id="Rectangle-6" x="0" y="0" width="24" height="24"></rect>
            <g id="Eye-off" fill="#1F2555">
                <path d="M10.1389,4.7082 C10.7069,4.5702 11.3379,4.4952 11.9829,4.4952 L12.0069,4.4952 C14.6069,4.4952 17.0809,5.7202 19.3619,8.1382 C20.6119,9.4632 21.4609,10.8122 21.8549,11.4872 C21.3189,12.4182 20.7239,13.2682 20.0559,14.0622 C19.6999,14.4802 19.7489,15.1112 20.1739,15.4672 C20.3629,15.6232 20.5929,15.7042 20.8189,15.7042 C21.0989,15.7042 21.3869,15.5852 21.5799,15.3482 C22.4549,14.3112 23.2039,13.2052 23.8789,11.9622 C24.0349,11.6742 24.0409,11.3312 23.8919,11.0372 C23.8479,10.9502 22.8049,8.8822 20.8549,6.8002 C18.2049,3.9882 15.1439,2.4962 11.9999,2.4962 L11.9749,2.4962 C11.1819,2.4962 10.3809,2.5892 9.6569,2.7642 C9.1189,2.8962 8.7939,3.4392 8.9259,3.9702 C9.0639,4.5072 9.6009,4.8392 10.1379,4.7082 L10.1389,4.7082 Z" id="Fill-1"></path>
                <path d="M12.0012,18.4919 C9.4012,18.4919 6.9272,17.2609 4.6412,14.8489 C3.3912,13.5239 2.5412,12.1799 2.1472,11.4989 C3.1722,9.7309 4.4662,8.1879 5.9902,6.8949 L8.5402,9.4439 C8.1462,10.0749 7.9282,10.8129 7.9282,11.5689 C7.9282,13.7739 9.7222,15.5679 11.9272,15.5679 C12.6832,15.5679 13.4212,15.3479 14.0522,14.9559 L16.3762,17.2799 C15.0582,18.0489 13.5632,18.4679 12.0022,18.4919 L12.0012,18.4919 Z M10.0262,10.9379 L12.5572,13.4679 C12.3562,13.5369 12.1452,13.5679 11.9262,13.5679 C10.8262,13.5679 9.9272,12.6679 9.9272,11.5689 C9.9272,11.3489 9.9652,11.1379 10.0262,10.9379 L10.0262,10.9379 Z M23.2042,21.2849 L18.6552,16.7359 C18.6492,16.7299 18.6442,16.7239 18.6312,16.7109 L2.2092,0.2899 C1.8222,-0.0971 1.1852,-0.0971 0.7972,0.2899 C0.4082,0.6769 0.4092,1.3149 0.7972,1.7029 L4.5702,5.4769 C2.7772,7.0209 1.2832,8.8819 0.1222,11.0129 C-0.0338,11.3019 -0.0398,11.6439 0.1032,11.9379 C0.1472,12.0249 1.1902,14.0939 3.1462,16.1739 C5.7952,18.9989 8.8562,20.4919 12.0062,20.4919 L12.0252,20.4919 C14.1182,20.4549 16.1052,19.8549 17.8232,18.7369 L21.7852,22.6989 C21.9792,22.8929 22.2342,22.9919 22.4902,22.9919 C22.7472,22.9919 23.0042,22.8929 23.1962,22.6989 C23.5972,22.3119 23.5972,21.6739 23.2022,21.2859 L23.2042,21.2849 Z" id="Fill-3"></path>
            </g>
        </g>
    </g>
</svg>

<?xml version="1.0" encoding="utf-8"?>
<!-- Generator: Adobe Illustrator 24.0.3, SVG Export Plug-In . SVG Version: 6.00 Build 0)  -->
<svg version="1.1" id="Layer_1" xmlns="http://www.w3.org/2000/svg" xmlns:xlink="http://www.w3.org/1999/xlink" x="0px" y="0px"
	 viewBox="0 0 24 24" enable-background="new 0 0 24 24" xml:space="preserve">
<path fill-rule="evenodd" clip-rule="evenodd" d="M23.9,11c0-0.1-1.1-2.2-3-4.2C18.2,4,15.1,2.5,12,2.5l0,0c-0.8,0-1.6,0.1-2.3,0.3
	C9.1,2.9,8.8,3.4,8.9,4C9,4.5,9.6,4.9,10.1,4.7l0,0c0.6-0.1,1.2-0.2,1.8-0.2l0,0c2.6,0,5.1,1.2,7.4,3.6c1.2,1.3,2.1,2.7,2.5,3.3
	c-0.5,0.9-1.1,1.8-1.8,2.6c-0.4,0.4-0.3,1,0.1,1.4c0.2,0.2,0.4,0.2,0.6,0.2c0.3,0,0.6-0.1,0.8-0.4c0.9-1,1.6-2.1,2.3-3.4
	C24,11.7,24,11.3,23.9,11z M23.2,21.3l-4.5-4.5l0,0L2.2,0.3c-0.4-0.4-1-0.4-1.4,0s-0.4,1,0,1.4l3.8,3.8C2.8,7,1.3,8.9,0.1,11
	c-0.2,0.3-0.2,0.6,0,0.9c0,0.1,1.1,2.2,3,4.2c2.6,2.8,5.7,4.3,8.9,4.3l0,0c2.1,0,4.1-0.6,5.8-1.8l4,4c0.2,0.2,0.4,0.3,0.7,0.3
	c0.3,0,0.5-0.1,0.7-0.3C23.6,22.3,23.6,21.7,23.2,21.3L23.2,21.3z M10,10.9l2.5,2.5c-0.2,0.1-0.4,0.1-0.6,0.1c-1.1,0-2-0.9-2-2
	C9.9,11.3,10,11.1,10,10.9z M12,18.5L12,18.5c-2.6,0-5.1-1.2-7.4-3.6c-1.2-1.3-2.1-2.7-2.5-3.3c1-1.8,2.3-3.3,3.8-4.6l2.6,2.5
	c-0.4,0.6-0.6,1.4-0.6,2.1c0,2.2,1.8,4,4,4c0.8,0,1.5-0.2,2.1-0.6l2.3,2.3C15.1,18,13.6,18.5,12,18.5z"/>
</svg>
